src/shared/assets/images/Plus/PlusIcon.svg

<svg xmlns="http://www.w3.org/2000/svg" width="100" height="100" viewBox="0 0 24 24"><path fill-rule="evenodd" d="M11 2v9H2v2h9v9h2v-9h9v-2h-9V2Z"/></svg>

<svg xmlns="http://www.w3.org/2000/svg" x="0px" y="0px" width="100" height="100" viewBox="0 0 24 24">
<path fill-rule="evenodd" d="M 11 2 L 11 11 L 2 11 L 2 13 L 11 13 L 11 22 L 13 22 L 13 13 L 22 13 L 22 11 L 13 11 L 13 2 Z"></path>
</svg>
